packages/tokens/icons/layeringTechniques/size16Px.svg

<svg viewBox="0 0 16 16" fill="none" xmlns="http://www.w3.org/2000/svg" width="1em" height="1em"><path d="M7.66719 3.64783C7.88256 3.57182 8.11746 3.57182 8.33283 3.64783L14.3297 5.76439C14.5521 5.84288 14.5521 6.15739 14.3297 6.23588L8.33283 8.35244C8.11746 8.42845 7.88256 8.42845 7.66719 8.35244L1.67027 6.23588C1.44788 6.15739 1.44788 5.84288 1.67027 5.76439L7.66719 3.64783Z" stroke="currentColor" stroke-linecap="round"/><path d="M14.5 8.5L8.53847 10.7929C8.19187 10.9262 7.80813 10.9262 7.46153 10.7929L1.5 8.5" stroke="currentColor" stroke-linecap="round"/><path d="M14.5 11L8.53847 13.2929C8.19187 13.4262 7.80813 13.4262 7.46153 13.2929L1.5 11" stroke="currentColor" stroke-linecap="round"/></svg>

<svg xmlns="http://www.w3.org/2000/svg" fill="none" viewBox="0 0 16 16" width="1em" height="1em"><path stroke="currentColor" stroke-linecap="round" d="M7.667 3.648a1 1 0 0 1 .666 0l5.997 2.116a.25.25 0 0 1 0 .472L8.333 8.352a1 1 0 0 1-.666 0L1.67 6.236a.25.25 0 0 1 0-.472l5.997-2.116ZM14.5 8.5l-5.962 2.293a1.5 1.5 0 0 1-1.076 0L1.5 8.5m13 2.5-5.962 2.293a1.5 1.5 0 0 1-1.076 0L1.5 11"/></svg>
